X: 2101
T: Çoban Kızı
C: Mahmut Güzelgöz
O: Turkey
F: http://compmusic.upf.edu/node/140
N: huseyni--turku--curcuna--coban_kizi--
N: makam= huseyni
N: form= turku
N: usul= curcuna = 10/8
M: 10/8
L: 1/16
K: C _2/4B ^3/4f  
Q: 1/4=216
%%MIDI tuningsystem comma53
e4 d2e4e2 d2d3/2e/ d3/2e/c3/2d/  | \
w:  ARANAĞME  | 
c4 d2e4e2 d2d3/2e/ d3/2e/c3/2d/  | 
w:   | 
c4 d2e3ddg fge2 d2B2  | c4 c2B2 A2A2 G2d2 d2B2  | \
w:   |   | 
c4 {d}c2B2 A2A4e=f edcd  | 
w:   | 
e4 d2e4e2 d2d3/2e/ d3/2e/c3/2d/  | \
w:  ARANAĞME  | 
c4 d2e4e2 d2d3/2e/ d3/2e/c3/2d/  | 
w:   | 
c4 d2e3ddg fge2 d2B2  | c4 c2B2 A2A2 G2d2 d2B2  | \
w:   |   | 
c4 c2B2 A2A4e=f edcB  | 
w:   | 
A4 G2A4A4{A}e6  | .e4 d2e4e4e6  | .e4 d2e4e4e4z2  | \
w:  *  Ço ban  kı *  zı   |  *  su ya  gi der   |  *  su  des di sin   | 
d3c e2e3cd3ce2 e3c  | 
w:  dol *  du rur   *  Dol *  du rur   | 
d4 g2g2 e2e2 d2e6  | e4 =f2e2 d2c2 d2ef edcB  | \
w:  dol du rur  vay  *  *  vay    |  SAZ  | 
A4 G2A4A4{A}e6  | 
w:  *  Ço ban  kı *  zı   | 
.e4 d2e4e4e6  | .e4 d2e4e4e4z2  | d3c e2e3cd3ce2 e3c  | 
w:  *  su ya  gi der   |  *  su  des di sin   |  dol *  du rur   *  Dol *  du rur   | 
d4 g2g2 e2e2 d2e6  | e4 =f2e2 d2c2 d2ef edcd  | \
w:  dol du rur  vay  *  *  vay    |  SAZ  | 
e4 d2e4e2 d2d3/2e/ d3/2e/c3/2d/  | 
w:  *  E ve  ge lir   | 
c4 d2e2 d2dg fge2 d2B2  | c4 {d}c2B2 A2A2 G2{e}d2 d2B2  | \
w:  *  gül  ben *  zi *  *  *  ni   |  sol *  du *  *  rur   *  *  Le  le   | 
c4 {d}c2B2 A2A4e=f edcd  | 
w:  sol *  du *  *  rur   SAZ  | 
e4 d2e4e2 d2d3/2e/ d3/2e/c3/2d/  | \
w:  *  E ve  ge lir   | 
c4 d2e2 d2dg fge2 d2B2  | 
w:  *  gül  ben *  zi *  *  *  ni   | 
c4 {d}c2B2 A2A2 G2{e}d2 d2B2  | c4 c2B2 A2A4e=f edcB  | \
w:  sol *  du *  *  rur   *  *  Le  le   |  sol du *  *  rur   SAZ  | 
A4 G2A4A4{A}e6  | 
w:  *  A nan  duy *  sa   | 
.e4 d2e4e4e4z2  | d3c e2e3cd3ce2 e3c  | \
w:  *  ba ban  be ni   |  öl *  dü rür   *  Öl *  dü rür   | 
d4 g2g2 e2e2 d2e6  | 
w:  öl dü rür  vay  *  *  vay    | 
e4 =f2e2 d2c2 d2ef edcB  | A4 G2A4A4{A}e6  | \
w:  SAZ  |  *  A nan  duy *  sa   | 
.e4 d2e4e4e4z2  | 
w:  *  ba ban  be ni   | 
d3c e2e3cd3ce2 e3c  | d4 g2g2 e2e2 d2e6  | \
w:  öl *  dü rür   *  Öl *  dü rür   |  öl dü rür  vay  *  *  vay    | 
e4 =f2e2 d2c2 d2ef edcd  | 
w:  SAZ  | 
e4 d2e4e2 d2d3/2e/ d3/2e/c3/2d/  | \
w:  *  Ço ban  kı zı   | 
c4 d2e4e2 d2d3/2e/ d3/2e/c3/2d/  | 
w:  *  ben  kork ma nam   | 
c4 d2e3ddg fge2 d2B2  | c4 c2B2 A2A2 G2d2 d2B2  | \
w:  *  se nin  *  ço *  *  *  ban   |  ba bay *  *  dan   *  Le  le   | 
c4 {d}c2B2 A2A4e=f edcd  | 
w:  ba *  bay *  *  dan   SAZ  | 
e4 d2e4e2 d2d3/2e/ d3/2e/c3/2d/  | \
w:  *  Ço ban  kı zı   | 
c4 d2e4e2 d2d3/2e/ d3/2e/c3/2d/  | 
w:  *  ben  kork ma nam   | 
c4 d2e3ddg fge2 d2B2  | c4 c2B2 A2A2 G2d2 d2B2  | \
w:  *  se nin  *  ço *  *  *  ban   |  ba bay *  *  dan   *  Le  le   | 
c4 c2B2 A2A8z2  | 
w:  ba *  bay *  dan    | 
|


